src/assets/outline/SafeHome.svg

<svg width="24" height="24" viewBox="0 0 24 24"  xmlns="http://www.w3.org/2000/svg">
<path d="M18.5298 23.7495C18.3798 23.7495 18.2398 23.7295 18.1098 23.6995C16.7898 23.3395 15.5998 22.5495 14.7498 21.4695C13.8398 20.3395 13.3398 18.9595 13.3398 17.5695V15.3795C13.3398 14.6595 13.8198 13.9295 14.4898 13.6495L17.2798 12.5095C18.0998 12.1895 18.9898 12.1895 19.7998 12.5095L22.5999 13.6495C23.2699 13.9295 23.7599 14.6595 23.7599 15.3795V17.5695C23.7599 20.3595 21.7599 22.9395 19.0099 23.6995C18.8399 23.7295 18.6798 23.7495 18.5298 23.7495ZM18.5399 13.7495C18.2999 13.7495 18.0598 13.7895 17.8298 13.8895L15.0598 15.0296C14.9598 15.0696 14.8398 15.2595 14.8398 15.3795V17.5695C14.8398 18.6195 15.2199 19.6696 15.9199 20.5396C16.5799 21.3796 17.4899 21.9895 18.4799 22.2595C18.5099 22.2695 18.5698 22.2695 18.6198 22.2495C20.6698 21.6795 22.2398 19.6695 22.2398 17.5695V15.3795C22.2398 15.2595 22.1199 15.0796 22.0099 15.0296L19.2299 13.8895C19.0099 13.7995 18.7799 13.7495 18.5399 13.7495Z" />
<path d="M15.34 21.75H6.17997C4.43997 21.75 2.83996 20.3999 2.54996 18.6899L1.28998 11.14C1.07998 9.95 1.66996 8.42002 2.60996 7.66002L9.18998 2.40001C10.48 1.36001 12.5 1.37002 13.79 2.41002L20.37 7.66002C21.32 8.42002 21.9 9.95 21.69 11.14L21.26 13.73C21.22 13.95 21.08 14.15 20.88 14.26C20.68 14.37 20.44 14.39 20.23 14.3L19.23 13.89C18.79 13.71 18.29 13.71 17.83 13.89L15.06 15.03C14.96 15.07 14.84 15.26 14.84 15.38V17.5699C14.84 18.6199 15.22 19.67 15.92 20.54C16.1 20.76 16.14 21.0699 16.01 21.3299C15.89 21.5799 15.63 21.75 15.34 21.75ZM11.48 3.11998C10.99 3.11998 10.49 3.27005 10.13 3.56005L3.54996 8.81993C3.02996 9.23993 2.65996 10.22 2.76996 10.88L4.02997 18.43C4.19997 19.41 5.17997 20.24 6.17997 20.24H13.98C13.56 19.39 13.34 18.47 13.34 17.55V15.36C13.34 14.64 13.82 13.91 14.49 13.63L17.28 12.49C18.1 12.17 18.99 12.17 19.8 12.49L19.94 12.55L20.22 10.89C20.33 10.23 19.96 9.24994 19.44 8.82994L12.86 3.57994C12.48 3.26994 11.98 3.11998 11.48 3.11998Z" />
</svg>

<?xml version="1.0" encoding="UTF-8"?>
<svg width="24" height="24" viewBox="0 0 24 24" xmlns="http://www.w3.org/2000/svg">
 <path d="m18.53 23.75c-0.15 0-0.29-0.02-0.42-0.05-1.32-0.36-2.51-1.15-3.36-2.23-0.91-1.13-1.41-2.51-1.41-3.9v-2.19c0-0.72 0.48-1.45 1.15-1.73l2.79-1.14c0.82-0.32 1.71-0.32 2.52 0l2.8001 1.14c0.67 0.28 1.16 1.01 1.16 1.73v2.19c0 2.79-2 5.37-4.75 6.13-0.17 0.03-0.3301 0.05-0.4801 0.05zm0.0101-10c-0.24 0-0.4801 0.04-0.7101 0.14l-2.77 1.1401c-0.1 0.04-0.22 0.2299-0.22 0.3499v2.19c0 1.05 0.3801 2.1001 1.0801 2.9701 0.66 0.84 1.57 1.4499 2.56 1.7199 0.03 0.01 0.0899 0.01 0.1399-0.01 2.05-0.57 3.62-2.58 3.62-4.68v-2.19c0-0.12-0.1199-0.2999-0.2299-0.3499l-2.78-1.1401c-0.22-0.09-0.45-0.14-0.69-0.14z"/>
 <path d="m15.34 21.75h-9.16c-1.74 0-3.34-1.3501-3.63-3.0601l-1.26-7.5499c-0.21-1.19 0.37998-2.72 1.32-3.48l6.58-5.26c1.29-1.04 3.31-1.03 4.6 0.01001l6.58 5.25c0.95 0.76 1.53 2.29 1.32 3.48l-0.43 2.59c-0.04 0.22-0.18 0.42-0.38 0.53s-0.44 0.13-0.65 0.04l-1-0.41c-0.44-0.18-0.94-0.18-1.4 0l-2.77 1.14c-0.1 0.04-0.22 0.23-0.22 0.35v2.1899c0 1.05 0.38 2.1001 1.08 2.9701 0.18 0.22 0.22 0.5299 0.09 0.7899-0.12 0.25-0.38 0.4201-0.67 0.4201zm-3.86-18.63c-0.49 0-0.99 0.15007-1.35 0.44007l-6.58 5.2599c-0.52 0.42-0.89 1.4001-0.78 2.0601l1.26 7.55c0.17 0.98 1.15 1.81 2.15 1.81h7.8c-0.42-0.85-0.64-1.77-0.64-2.69v-2.19c0-0.72 0.48-1.45 1.15-1.73l2.79-1.14c0.82-0.32 1.71-0.32 2.52 0l0.14 0.06 0.28-1.66c0.11-0.66-0.26-1.6401-0.78-2.0601l-6.58-5.25c-0.38-0.31-0.88-0.45996-1.38-0.45996z"/>
</svg>
